svg/u2b06.svg

<svg viewBox="0 0 128 128" xmlns="http://www.w3.org/2000/svg">
  <g>
    <path d="M116,4H12c-4.4,0-8,3.6-8,8v104c0,4.4,3.6,8,8,8h104c4.4,0,8-3.6,8-8V12C124,7.6,120.4,4,116,4z" fill="#427687"/>
    <path d="M109.7,4H11.5C7.4,4,4,7.4,4,11.5v97.9c0,4.2,3.4,7.5,7.5,7.5h98.1c4.2,0,7.5-3.4,7.5-7.5V11.5 C117.3,7.4,113.8,4,109.7,4z" fill="#8CAFBF"/>
  </g>
  <path d="M37,47.4l24-24c1.6-1.8,4.4-1.8,6,0l24,24c2.3,2.6,0.4,6.6-3,6.6H74c-1.1,0-2,0.9-2,2v46 c0,2.2-1.8,4-4,4h-8c-2.2,0-4-1.8-4-4V56c0-1.1-0.9-2-2-2H40C36.6,54,34.7,50,37,47.4z" fill="#FAFAFA"/>
  <path d="M39.7,12.9c0-2.3-1.6-3-10.8-2.7c-7.7,0.3-11.5,1.2-13.8,4 s-2.9,8.5-3,15.3c0,4.8,0,9.3,2.5,9.3c3.4,0,3.4-7.9,6.2-12.3C26.2,17.8,39.7,15.9,39.7,12.9z" opacity="0.5" fill="#B4E1ED" enable-background="new "/>
</svg>

<svg viewBox="0 0 128 128" xmlns="http://www.w3.org/2000/svg">
  <defs/>
  <path d="M116,4 L12,4 C7.6,4 4,7.6 4,12 L4,116 C4,120.4 7.6,124 12,124 L116,124 C120.4,124 124,120.4 124,116 L124,12 C124,7.6 120.4,4 116,4 Z" fill="#427687"/>
  <path d="M109.7,4 L11.5,4 C7.4,4 4,7.4 4,11.5 L4,109.4 C4,113.6 7.4,116.9 11.5,116.9 L109.6,116.9 C113.8,116.9 117.1,113.5 117.1,109.4 L117.1,11.5 C117.3,7.4 113.8,4 109.7,4 Z" fill="#8CAFBF"/>
  <path d="M37,47.4 L61,23.4 C62.6,21.6 65.4,21.6 67,23.4 L91,47.4 C93.3,50 91.4,54 88,54 L74,54 C72.9,54 72,54.9 72,56 L72,102 C72,104.2 70.2,106 68,106 L60,106 C57.8,106 56,104.2 56,102 L56,56 C56,54.9 55.1,54 54,54 L40,54 C36.6,54 34.7,50 37,47.4 Z" fill="#FAFAFA"/>
  <path d="M39.7,12.9 C39.7,10.6 38.1,9.9 28.9,10.2 C21.2,10.5 17.4,11.4 15.1,14.2 C12.8,17 12.2,22.7 12.1,29.5 C12.1,34.3 12.1,38.8 14.6,38.8 C18,38.8 18,30.9 20.8,26.5 C26.2,17.8 39.7,15.9 39.7,12.9 Z" fill="#B4E1ED" opacity="0.5"/>
</svg>
